X:1
T:Haec dies
T:Jacob Arcadelt ed. BMarble
T:Haec dies
T:Copyright © 2015 by CPDL.  This edition can be fully distributed, duplicated, performed, and recorded. 
T:Copyright © 2015 by CPDL.  This edition can be fully distributed, duplicated, performed, and recorded. 
T:Copyright © 2015 by CPDL.  This edition can be fully distributed, duplicated, performed, and recorded. 
T:Copyright © 2015 by CPDL.  This edition can be fully distributed, duplicated, performed, and recorded. 
T:Copyright © 2015 by CPDL.  This edition can be fully distributed, duplicated, performed, and recorded. 
T:Copyright © 2015 by CPDL.  This edition can be fully distributed, duplicated, performed, and recorded. 
C:Jacob Arcadelt
C:ed. BMarble
Z:Copyright © 2015 by CPDL.  This edition can be fully distributed, duplicated, performed, and recorded.
Z:
%%score [ 1 2 3 4 ]
L:1/8
Q:1/2=108
M:4/2
K:G
V:1 treble nm="SOPRANO" snm="S."
V:2 treble nm="ALTO" snm="A."
V:3 treble-8 transpose=-12 nm="TENOR" snm="T."
V:4 bass nm="BASS" snm="B."
V:1
 z16 | z16 | z16 | z16 | z16 | z16 | z16 | z16 | B16 | A8 A8 | c16 | B8 G8 | A12 B4 | %13
w: ||||||||Haec-|di- es-|quam-|fe- cit-|Do- mi-|
 c4 B6 A2 G2 F2 | E6 F2 G2 A2 B4- | B4 (A8 ^G4) | A16- | A8 z8 | A16- | A16 | c8 c8 | B16 | z16 | %23
w: nus,- Do- * * *||* mi- *|nus:|_|ex-||sul- te-|mus,-||
 z4 E4 B8- | B4 A4 B4 G4- | G4 (F8 E4-) | E4 ^D4 E8- | E8 z4 E4- | E4 C4 D4 F4- | F4 E8 ^D4 | %30
w: ex- sul-|* te- mus. ex-|* sul- *|* te- mus|_ et|_ lae- te- mur-|* in- e-|
 E8 z8 | z4 (E8 ^D4) | (E6 F2 G2 A2 B4-) | B4 E4 z8 | z8 z4 B4- | B4 G4 A4 c4- | c4 (B8 A4) | %37
w: a,-|in _|e- * * * *|* a,|et|_ lae- te- mur|_ in _|
 (B6 A2 =G4 F4) | E8 z8 | z4 E4 G4 A4 | B4 (c6 B2 A4) | (G12 ^F4) | E8 z4 F4 | G4 (E8 ^D4) | %44
w: e- * * *|a,|et- lae- te-|mur- in _ _|e- *|a,- et-|lae- te- *|
 E4 B4 c4 A4- | A4 ^G4 (A6 =G2 | E4) G6 F2 F4- | F2 E2 E8 ^D4 | E16- | E16- | E16 |] %51
w: mur,- et- lae- te-|* mur in _|_ e- * *||a.|_||
V:2
 z16 | z16 | z16 | z16 | z16 | E16 | D8 D8 | =F12 E4 | E8 G8 | =F4 (C6 D2 C2 B,2 | %10
w: |||||Haec-|di- es-|quam- fe-|cit- Do-|mi- nus, _ _ _|
 A,4) A6 G2 E2 ^F2 | G12 =F2 E2 | D4 (E8 D4) | E8 D4 E4- | E4 C4 D4 E4- | E2 DC D4 E8 | ^C8 z8 | %17
w: _ Do- * * *||* mi- *|nus,- quam- fe-|* cit- Do- *|* * * * mi-|nus:|
 =C12 D4 | E4 =F8 E2 D2 | E4 =F6 E2 E4- | E2 D2 C2 B,2 C2 D2 E4- | E4 D2 C2 B,8 | z8 E8- | %23
w: ex- sul-|te- * * *|||* * * mus,|ex-|
 E4 E4 E8 | D8 B,4 C4- | C2 B,2 B,8 A,4 | B,4 B,4 G,4 A,4 | C8 B,8 | A,8 z4 D4- | D4 C4 (A,6 B,2 | %30
w: * sul- te-|mus. ex- sul-|* * * te-|mus, et lae- te-|mur in|ea, et|_ lae- te- *|
 C4) B,8 A,4- | (A,4 G,4) A,8 | G,16 | z4 G,4 D4 C4 | A,4 B,4 (C4 D4) | B,8 (C4 A,4) | (B,8 C8) | %37
w: * mur- in|_ _ e-|a,-|et- lae- te-|mur- in- e- *|a,- in _|e- *|
 B,8 z8 | z8 z4 A,4 | E12 ^F4 | G4 E4 =F4 E4- | (E4 D2 C2 B,4) D4- | D2 C2 E8 ^D4 | E8 (A,8 | %44
w: a,-|et-|lae- te-|mur- in- e- a,|_ _ _ _ in|_ _ _ _|e- a,|
 B,8) z4 A,4 | C4 B,4 C4 D4 | C4 B,4 z4 B,4- | B,4 A,4 B,8 | ^G,8 B,8 | (C6 B,2 A,8) | ^G,16 |] %51
w: _ et-|lae- te- mur- in-|e- a,- et|_ lae- te-|mur- in-|e- * *|a.-|
V:3
 z8 B8- | B8 A8 | A8 c8- | c8 B8 | G8 A4 B4 | c8 B4 c4 | B4 A8 ^G4 | A6 B2 c8 | B8 z4 G4 | %9
w: Haec|_ di-|es- quam|_ fe-|cit- Do- *||* mi- *||nus, quam|
 A6 B2 c2 d2 e4- | e2 d2 c2 B2 c8 | d8 e8 | A4 c8 B2 A2 | G6 A2 B4 c4- | c4 A4 B4 G4 | A8 B8 | %16
w: fe- * * * *||cit Do-|mi- * * *||||
 A16 | A12 B4 | c4 d8 c2 B2 | c4 d4 A8 | z4 A8 A4 | G4 E4 G4 A4 | B4 c8 B2 A2 | B4 c8 B4 | %24
w: nus:|ex- sul-|te- * * *|* * mus,-|ex- sul-|te- * * *||mus, ex- sul-|
 (G4 A8 G4) | A4 B4 E8 | F8 E4 c4- | (c2 B2) A8 ^G4 | A8 B8 | (=G4 A4 F8) | E8 z4 c4- | c4 B8 A4 | %32
w: te- * *|mus, ex- sul-|te- mus- et|_ _ lae- te-|mur- in-|e- * *|a, et-|* lae- te-|
 c4 (B6 A2 G2 F2 | E4) c4 B4 A4- | A4 G4 ^F8 | E4 B8 A4- | (A4 ^G4) A8 | z4 E4 =G4 A4 | %38
w: mur- in _ _ _|_ e- a,- et|_ lae- te-|mur- in- e-|* * a,-|et- lae- te-|
 B4 c8 B2 A2 | G8 z8 | z16 | z4 E4 G4 A4 | B4 (c8 B2 A2 | G4) B6 A2 A4- | A4 ^G4 A4 =F4 | %45
w: mur- in- e- *|a,-||et- lae- te-|mur- in _ _|_ e- * *||
 E8 z4 ^F4 | G4 E4 F8 | (G4 A4) F8 | E8 ^G8 | (A6 B2 c8) | B16 |] %51
w: a,- et-|lae- te- mur-|in _ e-|a,- in-|e- * *|a.-|
V:4
 E,16 | D,8 D,8 | =F,16 | E,16- | E,8 D,8 | (C,6 D,2 E,4 C,4 | D,8) B,,8 | (A,,16 | E,16) | z16 | %10
w: Haec-|di- es-|quam-|fe-|* cit|Do- * * *|* mi-|nus,|_||
 A,16 | G,8 E,8 | =F,8 F,8 | E,8 z8 | A,8 G,4 E,4 | =F,4 (F,4 E,8) | A,,16- | A,,8 z8 | z16 | z16 | %20
w: quam-|fe- cit-|Do- mi-|nus,-|quam- fe- cit-|Do- mi- *|nus:|_|||
 z16 | E,12 F,4 | G,4 A,8 G,2 F,2 | G,4 A,4 E,4 G,4- | (G,4 F,4) E,8 | D,4 B,,4 (C,8 | %26
w: |ex- sul-|te- * * *|mus, ex- sul- te-|* * mus,|ex- sul- te-|
 B,,8) C,4 A,,4- | (A,,2 B,,2 C,4) D,4 E,4 | A,,8 z8 | z8 z4 A,4- | A,4 ^G,4 A,8 | E,4 =G,4 F,8 | %32
w: * mus, et|_ _ _ lae- te-|mur,-|et|_ lae- te-|mur- in- e-|
 E,8 z4 E,4- | E,4 C,4 D,4 =F,4- | F,4 (E,8 D,4) | (E,8 A,,8) | E,8 z4 A,,4 | E,12 F,4 | %38
w: a,- et|_ lae- te- mur|_ in _|e- *|a,- et-|lae- te-|
 G,4 A,4 =F,8 | E,8 z8 | z8 z4 A,,4 | E,12 ^F,4 | G,4 A,4 F,8 | E,4 G,4 F,8 | E,8 A,,8 | %45
w: mur- in- e-|a,-|et-|lae- te-|mur- in- e-||* a,-|
 z4 E,8 D,4 | E,8 B,,4 D,4 | C,8 B,,8 | E,16 | A,,16 | E,16 |] %51
w: et- lae-|te- mur in-|e- a,-|in-|e-|a.-|

